!!!OTL: In medio Ecclesiae 
**kern
*staff1
=1-
*clefC4
*k[]
1.G
2D/
1.G
2F/
=2
2G/
2G/
1C
1G
=3
1G
1C
1G
1G
=4
2F/
2G/
1A
1G
=5
!!linebreak:original
1G
2C/
2C/
2G/
2G/
=6
!LO:TX:Y=-45:t=P
0F
1G
=7
!LO:TX:Y=-43:t=P
1G
1G
0F
=8
0G
1C
=9
2C/
2G/
1.C
2C/
1G
=10
!!linebreak:original
!LO:TX:Y=-40:t=P
1G
1F
1.G
2G/
=11
2C/
2G/
1F
1G
=12
2G/
2G/
2C/
2C/
1G
=13
1G
1F
2F/
2F/
1G
=14
!LO:TX:Y=-38:t=P
!LO:TX:Y=-37:t=P
1C
2C/
2G/
0C
=15
0G
!!linebreak:original
=16
1C
2F/
2G/
2C/
2G/
2C/
2G/
=17
2F/
2E/
1F
1G
1F
=18
0F
1G
1F
1G
1C
=19
!!linebreak:original
1F
2F/
2E/
2F/
2G/
2F/
2E/
1D
1C
=20
1C
1C
1G
1G
=21
!LO:TX:Y=-38:t=P
1F
1G
0F
0G
==
*-
!!title: @{OTL}, @{GTL}, ed. @{ENC}
!!!pag:
!!!GTL: Hymnbook D
!!!EFL: 
!!!YEM: Creative Commons CC/BY/NC/SA 4.0
!!!ENC: Marcin Konik
!!!END: 2015-0m-dd
!!!EED: Marcin Konik
!!!EEV: 
!!!ONB: Encoded in vim by Marcin Konik
!!!CharacterEncoding: utf-8
!!!RDF**kern: l=long note in original notation
!!!RDF**kern: i=editorial accidental
!!muse2ps: z14jc180F
!!!COM: Anonim
!!!CDT: [?]
!!!TXO: Polish
!!!ODT: 
!!!GTL: Hymnbook D
!!!ARL: Opactwo św. Wojciecha, Staniątki 
!!!voices:	1
